X:11
T:Jack Sweeney's
B:Terry Moylan, Johnny O'Leary, No. 183.
N:A tune from Jack Sweeney of Tuar Mór; he died
N:in 1993.
N:JOL had several ways in which he played it,
N:depending on his mood. The variation given
N:below is from a session in Tom Fleming's Bar
N:in Scartaglin, August, '98.
Z:ATB
R:jig
M:6/8
L:1/8
K:D
aga fdf|dcd A2A|dcd fdd|gfg efg|
aga fdf|dcd A2A|(3B/4c/4d/4cd gec|[1 edc d3:|][2 edc dcB|]
A2d fdd|add fdd|Add fdd|gfg ecB|
Add fdd|add fdd|Add efg|fdc d2c|
Add fdd|add fdd|Add fdf|gfg efg|
aga fdf|dcd A2A|(3B/4c/4d/4Bd gec|edc d3|]
"Another version by JOL"
a3 f3|dcd A2c|dzd fed|gfg e2g|
a2a fdf|dcd A2c|d2e gec|[1 edc d3:|][2 edc dcB|]
A2d fed|add fdd|A2d fed|gfg ecB|
Add fdd|add fdd|Add efg|fdc d2c|
A2d fed|add fdd|A2d fdf|gfg efg|
aga fdf|dcd A2c|d2e gec|edc d3|]
